X:1
T:Venice, SM
T:Venice, SM
T:William Amps, 1853
T:Public Domain Courtesy of the Cyber Hymnal™
C:William Amps, 1853
Z:Public Domain
Z:Courtesy of the Cyber Hymnal™
%%score ( 1 2 ) ( 3 4 )
L:1/8
Q:1/4=105
M:4/4
K:Eb
V:1 treble 
V:2 treble 
V:3 bass 
V:4 bass 
V:1
 [GB]2 | ([Ac][GB]) ([FA][EG]) [EF]2 (GA) | [EG]6 E2 | E2 ([DF][EG]) [FA]2 [EG]2 | [DF]6 [DF]2 | %5
 B3 z A [EG]2 B2 | e3 z d [Ec]2 [DF]2 | [EB]2 (AG) [EF]2 [DF]2 | E6 |] %9
V:2
 x2 | x6 D2 | x6 E2 | E2 x6 | x8 | F2 (D2 x GF) x2 | E2 E2 x5 | x2 E2 x4 | E6 |] %9
V:3
 [E,E]2 | [E,E]2 [E,B,]2 [A,,C]2 [B,,B,]2 | [E,B,]6 [G,B,]2 | %3
 ([A,C][G,B,]) ([F,A,][E,G,]) [D,F,]2 (G,A,) | [B,,B,]6 [B,,B,]2 | %5
 [D,B,]2 [B,,B,]2 [E,B,]2 ([E,G,][F,A,]) x | [G,B,]2 [E,G,]2 A,2 [B,,B,]2 x | %7
 [G,,B,]2 ([C,E,][B,,B,]) [A,,C]2 (B,A,) | [E,G,]6 |] %9
V:4
 x2 | x8 | x8 | x6 E,2 | x8 | x9 | x4 A,2 x3 | x6 B,,2 | x6 |] %9

